X: 1720
T: Aodhán Moynihan's
R: reel
M: 4/4
K: Edorian
|:edBA FEEE|FEBE FE E2|edBA FEEE|FGAG FDDd|
edBA FE ~E2|FEDE FEEB,|DEFA ~B2 dB|AFDE FE E2:|
FABc d2 cd|Beed BEED|FABc dBAd|Beed e2 de|
fedf edBc|dABd AFdF|EFGA B2 Bd|AFDE FE (3EED|
FABc d2 cd|Beed BEED|FABc dBAd|Beed e2 ef|
gfeg fedf|edAd AFdF|EFGA ~B2 ed|AFDE FE ~E2||

